images/people/people-20.svg

<?xml version="1.0" standalone="no"?><!DOCTYPE svg PUBLIC "-//W3C//DTD SVG 1.1//EN" "http://www.w3.org/Graphics/SVG/1.1/DTD/svg11.dtd"><svg width="120px" height="192px" version="1.1" xmlns="http://www.w3.org/2000/svg" xmlns:xlink="http://www.w3.org/1999/xlink" xml:space="preserve" style="fill-rule:evenodd;clip-rule:evenodd;stroke-linejoin:round;stroke-miterlimit:1.41421;"><g><g id="people-20" transform="matrix(1,0,0,1,-385.043,-48)"><g transform="matrix(1,0,0,1,0,-12)"><path d="M438.041,175.75l4.799,-1.888l10.424,-0.406l-2.475,-20.082l-12.688,-0.233l-0.06,22.609Z" style="fill:#ecdbb1;fill-rule:nonzero;"/></g><g transform="matrix(1,0,0,1,0,-12)"><path d="M444.417,149.167l8.583,2.708l4.707,23.208l-4.851,5.167l0.059,-5.574l-0.31,-1.646l-1.491,-7.529l-1.864,-9.501l-5.103,-2.083l0.27,-4.75Z" style="fill:#ecdbb1;fill-rule:nonzero;"/></g><g transform="matrix(1,0,0,1,0,-12)"><path d="M444.233,153.917l-5.022,1.887l-0.588,22.196l-4.248,-0.749l0.832,-23.918l9.334,-4.25l-0.308,4.834Z" style="fill:#ecdbb1;fill-rule:nonzero;"/></g><g transform="matrix(1,0,0,1,0,-12)"><path d="M436.581,205.249l-0.58,29.062l5.187,1.084l2.868,-30.575" style="fill:#ceab97;fill-rule:nonzero;"/></g><g transform="matrix(1,0,0,1,0,-12)"><path d="M446.598,204.881l3.729,29.809l4.761,0.385l-0.672,-30.406l-7.818,0.212Z" style="fill:#ceab97;fill-rule:nonzero;"/></g><g transform="matrix(1,0,0,1,0,-12)"><path d="M463.269,222.258l1.396,-9.402l-38.828,-0.036l1.499,9.479l35.933,-0.041Z" style="fill:#c1beba;fill-rule:nonzero;"/></g><g transform="matrix(1,0,0,1,0,-12)"><path d="M463.269,222.227l1.396,-9.402l-38.828,-0.036l1.499,9.479l35.933,-0.041Z" style="fill:#171817;fill-opacity:0.25;fill-rule:nonzero;"/></g><g transform="matrix(1,0,0,1,0,-12)"><path d="M427.186,244.198l0,-4.2l17.147,-0.056l0.719,4.273l-17.866,-0.017Z" style="fill:#c1beba;fill-rule:nonzero;"/></g><g transform="matrix(1,0,0,1,0,-12)"><path d="M464.718,244.198l0,-4.2l-17.147,-0.056l-0.719,4.273l17.866,-0.017Z" style="fill:#c1beba;fill-rule:nonzero;"/></g><g transform="matrix(1,0,0,1,0,-12)"><path d="M463.06,213.028l4.399,-42.402l-44.834,-0.036l4.502,42.479l35.933,-0.041Z" style="fill:#d8d3cb;fill-rule:nonzero;"/></g><g transform="matrix(1,0,0,1,0,-12)"><path d="M463.496,202.866l-1.244,1.289l0.046,46.008l1.381,1.837l2.252,0l1.334,-2.07l-0.183,-46.008l-1.38,-1.056l-2.206,0Z" style="fill:#2a2b2a;fill-rule:nonzero;"/></g><g transform="matrix(1,0,0,1,0,-12)"><path d="M424.002,202.866l-1.243,1.289l0.046,46.008l1.38,1.837l2.252,0l1.335,-2.07l-0.183,-46.008l-1.381,-1.056l-2.206,0Z" style="fill:#2a2b2a;fill-rule:nonzero;"/></g><g transform="matrix(1,0,0,1,0,-12)"><path d="M435.963,234.273l-1.715,5.726l8.543,0l-1.5,-5.708l-5.328,-0.018Z" style="fill:#f4f2ed;fill-rule:nonzero;"/></g><g transform="matrix(1,0,0,1,0,-12)"><path d="M450.172,234.607l-1.715,5.726l8.543,0l-1.5,-5.708l-5.328,-0.018Z" style="fill:#f4f2ed;fill-rule:nonzero;"/></g></g></g></svg>

<?xml version="1.0" encoding="UTF-8" standalone="no"?>
<!DOCTYPE svg PUBLIC "-//W3C//DTD SVG 1.1//EN" "http://www.w3.org/Graphics/SVG/1.1/DTD/svg11.dtd">
<svg width="100%" height="100%" viewBox="0 0 140 220" version="1.1" xmlns="http://www.w3.org/2000/svg" xmlns:xlink="http://www.w3.org/1999/xlink" xml:space="preserve" xmlns:serif="http://www.serif.com/" style="fill-rule:evenodd;clip-rule:evenodd;stroke-linejoin:round;stroke-miterlimit:2;">
    <g id="people-20" transform="matrix(1.27,0,0,1.27,-495.204,-84.8)">
        <g transform="matrix(1,0,0,1,0,-12)">
            <path d="M438.041,175.75L442.84,173.862L453.264,173.456L450.789,153.374L438.101,153.141L438.041,175.75Z" style="fill:rgb(236,219,177);fill-rule:nonzero;"/>
        </g>
        <g transform="matrix(1,0,0,1,0,-12)">
            <path d="M444.417,149.167L453,151.875L457.707,175.083L452.856,180.25L452.915,174.676L452.605,173.03L451.114,165.501L449.25,156L444.147,153.917L444.417,149.167Z" style="fill:rgb(236,219,177);fill-rule:nonzero;"/>
        </g>
        <g transform="matrix(1,0,0,1,0,-12)">
            <path d="M444.233,153.917L439.211,155.804L438.623,178L434.375,177.251L435.207,153.333L444.541,149.083L444.233,153.917Z" style="fill:rgb(236,219,177);fill-rule:nonzero;"/>
        </g>
        <g transform="matrix(1,0,0,1,0,-12)">
            <path d="M436.581,205.249L436.001,234.311L441.188,235.395L444.056,204.82" style="fill:rgb(206,171,151);fill-rule:nonzero;"/>
        </g>
        <g transform="matrix(1,0,0,1,0,-12)">
            <path d="M446.598,204.881L450.327,234.69L455.088,235.075L454.416,204.669L446.598,204.881Z" style="fill:rgb(206,171,151);fill-rule:nonzero;"/>
        </g>
        <g transform="matrix(1,0,0,1,0,-12)">
            <path d="M463.269,222.258L464.665,212.856L425.837,212.82L427.336,222.299L463.269,222.258Z" style="fill:rgb(193,190,186);fill-rule:nonzero;"/>
        </g>
        <g transform="matrix(1,0,0,1,0,-12)">
            <path d="M463.269,222.227L464.665,212.825L425.837,212.789L427.336,222.268L463.269,222.227Z" style="fill:rgb(23,24,23);fill-opacity:0.25;fill-rule:nonzero;"/>
        </g>
        <g transform="matrix(1,0,0,1,0,-12)">
            <path d="M427.186,244.198L427.186,239.998L444.333,239.942L445.052,244.215L427.186,244.198Z" style="fill:rgb(193,190,186);fill-rule:nonzero;"/>
        </g>
        <g transform="matrix(1,0,0,1,0,-12)">
            <path d="M464.718,244.198L464.718,239.998L447.571,239.942L446.852,244.215L464.718,244.198Z" style="fill:rgb(193,190,186);fill-rule:nonzero;"/>
        </g>
        <g transform="matrix(1,0,0,1,0,-12)">
            <path d="M463.061,213.028L467.46,170.626L422.626,170.59L427.128,213.069L463.061,213.028Z" style="fill:rgb(216,211,203);fill-rule:nonzero;"/>
        </g>
        <g transform="matrix(1,0,0,1,0,-12)">
            <path d="M463.496,202.866L462.252,204.155L462.298,250.163L463.679,252L465.931,252L467.265,249.93L467.082,203.922L465.702,202.866L463.496,202.866Z" style="fill:rgb(42,43,42);fill-rule:nonzero;"/>
        </g>
        <g transform="matrix(1,0,0,1,0,-12)">
            <path d="M424.002,202.866L422.759,204.155L422.805,250.163L424.185,252L426.437,252L427.772,249.93L427.589,203.922L426.208,202.866L424.002,202.866Z" style="fill:rgb(42,43,42);fill-rule:nonzero;"/>
        </g>
        <g transform="matrix(1,0,0,1,0,-12)">
            <path d="M435.963,234.273L434.248,239.999L442.791,239.999L441.291,234.291L435.963,234.273Z" style="fill:rgb(244,242,237);fill-rule:nonzero;"/>
        </g>
        <g transform="matrix(1,0,0,1,0,-12)">
            <path d="M450.172,234.607L448.457,240.333L457,240.333L455.5,234.625L450.172,234.607Z" style="fill:rgb(244,242,237);fill-rule:nonzero;"/>
        </g>
    </g>
</svg>
